img/doc.svg

<svg width="48" height="48" viewBox="0 0 48 48" fill="none" xmlns="http://www.w3.org/2000/svg">
<path d="M47.988 21.94C47.982 21.849 47.965 21.761 47.934 21.674C47.923 21.642 47.915 21.611 47.901 21.58C47.853 21.477 47.793 21.381 47.71 21.297C47.709 21.295 47.708 21.294 47.706 21.292L42 15.586V10C42 9.979 41.989 9.96 41.988 9.939C41.982 9.85 41.965 9.764 41.936 9.68C41.925 9.648 41.917 9.618 41.903 9.587C41.854 9.481 41.793 9.38 41.707 9.294L32.707 0.294C32.622 0.209 32.521 0.148 32.416 0.099C32.384 0.084 32.351 0.075 32.317 0.064C32.236 0.037 32.153 0.02 32.068 0.014C32.044 0.012 32.023 0 32 0H7C6.447 0 6 0.448 6 1V15.586L0.294 21.292C0.292 21.294 0.292 21.295 0.29 21.297C0.207 21.38 0.147 21.477 0.099 21.58C0.085 21.61 0.077 21.642 0.066 21.674C0.036 21.76 0.018 21.848 0.012 21.94C0.011 21.961 0 21.979 0 22V41C0 41.552 0.447 42 1 42H6V47C6 47.552 6.447 48 7 48H41C41.553 48 42 47.552 42 47V42H47C47.553 42 48 41.552 48 41V22C48 21.979 47.989 21.961 47.988 21.94ZM44.586 21H42V18.414L44.586 21ZM38.586 9H33V3.414L38.586 9ZM8 2H31V10C31 10.552 31.447 11 32 11H40V16V21H8V16V2ZM6 18.414V21H3.414L6 18.414ZM40 46H8V42H40V46ZM46 40H2V23H7H41H46V40Z" fill="black"/>
<path d="M14.1739 25.9639H11.1479V37.9999H14.1569C15.7099 37.9999 16.8859 37.4759 17.6849 36.4269C18.4839 35.3789 18.8829 33.9029 18.8829 31.9989C18.8829 30.0949 18.4839 28.6129 17.6849 27.5529C16.8849 26.4939 15.7149 25.9639 14.1739 25.9639ZM16.6469 33.8429C16.5169 34.3709 16.3319 34.8099 16.0939 35.1609C15.8559 35.5119 15.5729 35.7759 15.2439 35.9509C14.9149 36.1269 14.5579 36.2149 14.1729 36.2149H13.2039V27.7489H14.1729C14.5579 27.7489 14.9149 27.8369 15.2439 28.0119C15.5729 28.1879 15.8559 28.4519 16.0939 28.8029C16.3319 29.1539 16.5159 29.5959 16.6469 30.1289C16.7769 30.6619 16.8419 31.2849 16.8419 31.9989C16.8429 32.7019 16.7779 33.3159 16.6469 33.8429Z" fill="black"/>
<path d="M33.0608 28.8542C33.2648 28.4572 33.5198 28.1432 33.8258 27.9102C34.1318 27.6782 34.4888 27.5622 34.8968 27.5622C35.6338 27.5622 36.2338 27.8962 36.6988 28.5652L37.8718 27.1372C37.5428 26.6612 37.1178 26.2962 36.5968 26.0402C36.0758 25.7852 35.4688 25.6582 34.7778 25.6582C34.1088 25.6582 33.4998 25.8142 32.9508 26.1252C32.4008 26.4372 31.9338 26.8732 31.5478 27.4342C31.1628 27.9962 30.8648 28.6642 30.6558 29.4402C30.4458 30.2172 30.3408 31.0642 30.3408 31.9822C30.3408 32.9002 30.4458 33.7442 30.6558 34.5152C30.8658 35.2862 31.1598 35.9512 31.5398 36.5122C31.9198 37.0742 32.3838 37.5132 32.9338 37.8302C33.4838 38.1472 34.0988 38.3062 34.7788 38.3062C35.5268 38.3062 36.1468 38.1592 36.6398 37.8642C37.1328 37.5692 37.5378 37.1842 37.8548 36.7082L36.6818 35.3312C36.4888 35.6262 36.2488 35.8752 35.9598 36.0792C35.6708 36.2832 35.3278 36.3852 34.9318 36.3852C34.5128 36.3852 34.1468 36.2692 33.8348 36.0362C33.5228 35.8042 33.2658 35.4902 33.0618 35.0932C32.8578 34.6962 32.7048 34.2292 32.6028 33.6902C32.5008 33.1522 32.4498 32.5832 32.4498 31.9822C32.4498 31.3702 32.5008 30.7952 32.6028 30.2562C32.7038 29.7182 32.8568 29.2512 33.0608 28.8542Z" fill="black"/>
<path d="M27.8079 27.3922C27.4339 26.8372 26.9779 26.4092 26.4399 26.1082C25.9019 25.8082 25.2979 25.6582 24.6299 25.6582C23.9499 25.6582 23.3409 25.8082 22.8029 26.1082C22.2649 26.4092 21.8089 26.8372 21.4349 27.3922C21.0609 27.9472 20.7779 28.6102 20.5849 29.3812C20.3919 30.1522 20.2959 31.0132 20.2959 31.9652C20.2959 32.9172 20.3949 33.7812 20.5939 34.5572C20.7919 35.3342 21.0789 36.0002 21.4519 36.5552C21.8259 37.1102 22.2789 37.5412 22.8119 37.8472C23.3449 38.1532 23.9509 38.3062 24.6309 38.3062C25.2999 38.3062 25.9029 38.1532 26.4409 37.8472C26.9789 37.5412 27.4349 37.1102 27.8089 36.5552C28.1829 36.0002 28.4689 35.3342 28.6669 34.5572C28.8649 33.7812 28.9649 32.9172 28.9649 31.9652C28.9649 31.0132 28.8659 30.1522 28.6669 29.3812C28.4679 28.6102 28.1819 27.9472 27.8079 27.3922ZM26.7199 33.6902C26.6289 34.2292 26.4909 34.6962 26.3039 35.0932C26.1169 35.4902 25.8849 35.8012 25.6069 36.0282C25.3289 36.2552 25.0029 36.3682 24.6289 36.3682C24.2549 36.3682 23.9289 36.2552 23.6509 36.0282C23.3729 35.8012 23.1409 35.4902 22.9539 35.0932C22.7669 34.6962 22.6279 34.2292 22.5369 33.6902C22.4459 33.1522 22.4009 32.5772 22.4009 31.9652C22.4009 31.3532 22.4459 30.7782 22.5369 30.2392C22.6279 29.7012 22.7659 29.2372 22.9539 28.8452C23.1409 28.4542 23.3729 28.1462 23.6509 27.9192C23.9289 27.6922 24.2549 27.5792 24.6289 27.5792C24.9919 27.5792 25.3119 27.6922 25.5889 27.9192C25.8669 28.1462 26.0989 28.4542 26.2859 28.8452C26.4729 29.2372 26.6149 29.7012 26.7109 30.2392C26.8069 30.7782 26.8559 31.3532 26.8559 31.9652C26.8559 32.5772 26.8109 33.1522 26.7199 33.6902Z" fill="black"/>
</svg>

<?xml version="1.0" encoding="iso-8859-1"?>
<!-- Generator: Adobe Illustrator 19.0.0, SVG Export Plug-In . SVG Version: 6.00 Build 0)  -->
<svg version="1.1" id="Capa_1" xmlns="http://www.w3.org/2000/svg" xmlns:xlink="http://www.w3.org/1999/xlink" x="0px" y="0px"
	 viewBox="0 0 48 48" style="enable-background:new 0 0 48 48;" xml:space="preserve">
<g>
	<g>
		<path d="M47.987,21.938c-0.006-0.091-0.023-0.178-0.053-0.264c-0.011-0.032-0.019-0.063-0.033-0.094
			c-0.048-0.104-0.109-0.202-0.193-0.285c-0.001-0.001-0.001-0.001-0.001-0.001L42,15.586V10c0-0.022-0.011-0.041-0.013-0.063
			c-0.006-0.088-0.023-0.173-0.051-0.257c-0.011-0.032-0.019-0.063-0.034-0.094c-0.049-0.106-0.11-0.207-0.196-0.293l-9-9
			c-0.086-0.086-0.187-0.147-0.294-0.196c-0.03-0.014-0.06-0.022-0.091-0.033c-0.085-0.029-0.172-0.047-0.262-0.052
			C32.039,0.01,32.021,0,32,0H7C6.448,0,6,0.448,6,1v14.586l-5.707,5.707c0,0-0.001,0.001-0.002,0.002
			c-0.084,0.084-0.144,0.182-0.192,0.285c-0.014,0.031-0.022,0.062-0.033,0.094c-0.03,0.086-0.048,0.173-0.053,0.264
			C0.011,21.96,0,21.978,0,22v19c0,0.552,0.448,1,1,1h5v5c0,0.552,0.448,1,1,1h34c0.552,0,1-0.448,1-1v-5h5c0.552,0,1-0.448,1-1V22
			C48,21.978,47.989,21.96,47.987,21.938z M44.586,21H42v-2.586L44.586,21z M38.586,9H33V3.414L38.586,9z M8,2h23v8
			c0,0.552,0.448,1,1,1h8v5v5H8v-5V2z M6,18.414V21H3.414L6,18.414z M40,46H8v-4h32V46z M46,40H2V23h5h34h5V40z"/>
		<path d="M35.144,32.143c0.221-0.153,0.422-0.354,0.604-0.603c0.181-0.249,0.332-0.552,0.451-0.91
			c0.119-0.357,0.179-0.767,0.179-1.232c0-0.601-0.085-1.116-0.255-1.547c-0.17-0.431-0.405-0.788-0.706-1.071
			c-0.3-0.283-0.66-0.49-1.079-0.621c-0.419-0.13-0.878-0.195-1.377-0.195h-3.434V38h1.972v-5.134h1.139L34.506,38h2.142
			l-2.159-5.542C34.704,32.401,34.923,32.297,35.144,32.143z M33.886,30.902c-0.323,0.312-0.734,0.468-1.232,0.468h-1.156v-3.706
			h1.156c0.204,0,0.408,0.028,0.612,0.085s0.388,0.153,0.553,0.289s0.298,0.323,0.4,0.561s0.153,0.538,0.153,0.901
			C34.37,30.123,34.208,30.591,33.886,30.902z"/>
		<path d="M22.725,25.964L19.733,38h2.04l0.612-2.55h3.162L26.142,38h2.125l-2.941-12.036H22.725z M22.64,33.852l1.309-5.967h0.068
			l1.275,5.967H22.64z"/>
		<path d="M17.82,32.143c0.221-0.153,0.422-0.354,0.604-0.603c0.181-0.249,0.331-0.552,0.451-0.91
			c0.119-0.357,0.178-0.767,0.178-1.232c0-0.601-0.085-1.116-0.255-1.547c-0.17-0.431-0.405-0.788-0.705-1.071
			c-0.3-0.283-0.66-0.49-1.08-0.621c-0.419-0.13-0.878-0.195-1.377-0.195h-3.434V38h1.972v-5.134h1.139L17.183,38h2.142
			l-2.159-5.542C17.381,32.401,17.6,32.297,17.82,32.143z M16.563,30.902c-0.323,0.312-0.734,0.468-1.233,0.468h-1.156v-3.706h1.156
			c0.204,0,0.408,0.028,0.612,0.085c0.204,0.057,0.388,0.153,0.552,0.289s0.298,0.323,0.399,0.561s0.153,0.538,0.153,0.901
			C17.047,30.123,16.885,30.591,16.563,30.902z"/>
	</g>
</g>
<g>
</g>
<g>
</g>
<g>
</g>
<g>
</g>
<g>
</g>
<g>
</g>
<g>
</g>
<g>
</g>
<g>
</g>
<g>
</g>
<g>
</g>
<g>
</g>
<g>
</g>
<g>
</g>
<g>
</g>
</svg>
